X: 33808
T: Ray's Revenge
R: jig
M: 6/8
K: Dmajor
AFA .dcB|AFG EFD|AFG EFD|~E3 EFG|
.A/.A/FA dz B|AFG EFD|A B/c/d efe|dz d dcB||
AFA ~d2B|AFG EFD|AFG EFD|EFD EFG|
.A/.A/FA dz B|AFG EFD|A B/c/d efe|dz2 deg||
~f3 ~B3|~e3 ~A3|.f.B.B .B.c.d|.g.a.g f{a}fe|
fz .B Bcd|.e.cA BAG|F/G/A F GEA|ded dz g||
.fe.f .BF.B|.ef.e .AE.A|.fe.f .BF.B|.ga.g f{a}fe|
fz .B Bcd|.e.cA BAG|F/G/A F GEA|.dz .A/A/ JB2A||

